src/assets/heardOn/agenziagiovani.svg

<?xml version="1.0" encoding="UTF-8"?>
<svg data-name="Livello 1" viewBox="0 0 130.36 75.82" xmlns="http://www.w3.org/2000/svg">
<defs>
<style>.cls-1{fill:#fff;}</style>
</defs>
<path class="cls-1" transform="translate(-.24 -.12)" d="M120.09,42.78H90.42c3.25-3,7.74-3.75,12.77-4.21a17,17,0,0,0,2.14.14,17.67,17.67,0,0,0,17.1-13.82,14.42,14.42,0,0,0,.46-3.48l0-7.45c0-5.43,3.74-6,5.35-6a2.39,2.39,0,0,0,0-4.77,9.56,9.56,0,0,0-9.32,6.36,17.43,17.43,0,0,0-13.61-6.6,17.94,17.94,0,0,0-10,32.59c-4.45,1.72-8.22,3.29-10.86,6.82-.8-.55-1.53-.52-1.53-3.2V18.27C83,7.92,75.59.12,65.78.12A16.78,16.78,0,0,0,53.12,6,8.57,8.57,0,0,0,44.87.58,2.36,2.36,0,0,0,42.53,3a2.37,2.37,0,0,0,2.34,2.39c1.6,0,4.3.63,4.3,4.86v21.5c0,4.3-2.28,4.65-4.38,4.65-1.59,0-4.69-.63-4.69-4.86V10.77a2.37,2.37,0,0,0-2.34-2.39,2.33,2.33,0,0,0-1.47.54A19.81,19.81,0,0,0,20.17.52,20.15,20.15,0,0,0,.24,20.83c0,13.85,11.84,20.3,19.86,20.3a23.36,23.36,0,0,0,15.87-6,9.24,9.24,0,0,0,17.89-3.44V16.45c0-6.16,5.57-11.56,11.92-11.56S78.3,9.48,78.3,18.27V39.15c0,4.48,1.64,5.91,3.82,7.26a19.25,19.25,0,0,0-1.66,7.8c0,12,11.16,21.73,24.87,21.73s24.88-9.74,24.88-21.73C130.21,48.8,126,42.78,120.09,42.78Zm-27.63-22a12.87,12.87,0,1,1,25.74,0,12.59,12.59,0,0,1-.31,2.83,12.9,12.9,0,0,1-12.56,10.05c-.66,0-1.33,0-2,.08A13.07,13.07,0,0,1,92.46,20.83ZM20.1,36.36c-4.76,0-15.18-3.91-15.18-15.53A15.42,15.42,0,0,1,20.17,5.3,15.41,15.41,0,0,1,35.42,20.83s0,.06,0,.1v8.13C31,34,26,36.36,20.1,36.36Zm85.23,34.81c-11.13,0-20.2-7.61-20.2-17a14.69,14.69,0,0,1,1.63-6.66h33.33c3,0,5.43,3.64,5.43,6.66C125.52,63.56,116.47,71.17,105.33,71.17Z"/>
<path class="cls-1" transform="translate(-.24 -.12)" d="M7.1,45.35l2.78,7.41H8.18l-.56-1.65H4.85l-.59,1.65H2.62l2.81-7.41Zm.09,4.55-.93-2.73h0l-1,2.73Z"/>
<path class="cls-1" transform="translate(-.24 -.12)" d="M15.17,52.71a2.7,2.7,0,0,1-1.07.22,3.73,3.73,0,0,1-1.53-.3,3.19,3.19,0,0,1-1.15-.81,3.53,3.53,0,0,1-.71-1.22,4.43,4.43,0,0,1-.25-1.51,4.58,4.58,0,0,1,.25-1.55,3.62,3.62,0,0,1,.71-1.24,3.24,3.24,0,0,1,1.15-.83,3.73,3.73,0,0,1,1.53-.3,3.78,3.78,0,0,1,1.11.17,3.13,3.13,0,0,1,1,.5,2.84,2.84,0,0,1,.72.82,2.72,2.72,0,0,1,.34,1.13H15.67a1.57,1.57,0,0,0-.56-.94,1.62,1.62,0,0,0-1-.31,1.88,1.88,0,0,0-.93.21,1.76,1.76,0,0,0-.63.58,2.28,2.28,0,0,0-.34.81,3.69,3.69,0,0,0-.11,1,3.36,3.36,0,0,0,.11.9,2.39,2.39,0,0,0,.34.8,1.7,1.7,0,0,0,.63.56,1.78,1.78,0,0,0,.93.22,1.82,1.82,0,0,0,1.26-.41A1.82,1.82,0,0,0,15.87,50H14.23V48.75h3.11v4h-1l-.16-.84A2.38,2.38,0,0,1,15.17,52.71Z"/>
<path class="cls-1" transform="translate(-.24 -.12)" d="m24.47 45.35v1.37h-3.92v1.58h3.6v1.27h-3.6v1.82h4v1.37h-5.63v-7.41z"/>
<path class="cls-1" transform="translate(-.24 -.12)" d="m27.54 45.35 3.09 5v-5h1.53v7.41h-1.61l-3.09-5v5h-1.54v-7.41z"/>
<path class="cls-1" transform="translate(-.24 -.12)" d="M37.38,46.72H33.71V45.35h5.84v1.28l-4,4.76h4.08v1.37H33.4V51.47Z"/>
<path class="cls-1" transform="translate(-.24 -.12)" d="m42.5 45.35v7.41h-1.63v-7.41z"/>
<path class="cls-1" transform="translate(-.24 -.12)" d="M47.89,45.35l2.77,7.41H49l-.56-1.65H45.63l-.58,1.65H43.41l2.81-7.41ZM48,49.9l-.93-2.73h0l-1,2.73Z"/>
<path class="cls-1" transform="translate(-.24 -.12)" d="M5,55.66l3.1,5h0v-5H9.67v7.42H8L5,58.11h0v5H3.4V55.66Z"/>
<path class="cls-1" transform="translate(-.24 -.12)" d="M15.06,55.66l2.77,7.42H16.14l-.56-1.65H12.81l-.59,1.65H10.58l2.81-7.42Zm.09,4.55-.93-2.72h0l-1,2.72Z"/>
<path class="cls-1" transform="translate(-.24 -.12)" d="M22.24,57H18.57V55.66h5.84V57l-4,4.76h4.08v1.37H18.26V61.79Z"/>
<path class="cls-1" transform="translate(-.24 -.12)" d="m27.36 55.66v7.42h-1.63v-7.42z"/>
<path class="cls-1" transform="translate(-.24 -.12)" d="M29,57.86a3.86,3.86,0,0,1,.72-1.25,3.22,3.22,0,0,1,1.15-.82,3.58,3.58,0,0,1,1.53-.31,3.62,3.62,0,0,1,1.54.31,3.27,3.27,0,0,1,1.14.82,3.86,3.86,0,0,1,.72,1.25A4.78,4.78,0,0,1,36,59.4a4.64,4.64,0,0,1-.24,1.51,3.62,3.62,0,0,1-.72,1.22,3.27,3.27,0,0,1-1.14.82,4,4,0,0,1-1.54.29A3.9,3.9,0,0,1,30.85,63a3.22,3.22,0,0,1-1.15-.82A3.62,3.62,0,0,1,29,60.91a4.64,4.64,0,0,1-.25-1.51A4.78,4.78,0,0,1,29,57.86Zm1.49,2.45a2.5,2.5,0,0,0,.35.8,1.85,1.85,0,0,0,.62.56,2,2,0,0,0,.94.21,1.91,1.91,0,0,0,.93-.21,1.8,1.8,0,0,0,.63-.56,2.74,2.74,0,0,0,.35-.8,3.91,3.91,0,0,0,.1-.91,4.25,4.25,0,0,0-.1-.95,2.69,2.69,0,0,0-.35-.81,1.73,1.73,0,0,0-.63-.57,1.91,1.91,0,0,0-.93-.22,2,2,0,0,0-.94.22,1.78,1.78,0,0,0-.62.57,2.46,2.46,0,0,0-.35.81,4.26,4.26,0,0,0-.11.95A3.91,3.91,0,0,0,30.47,60.31Z"/>
<path class="cls-1" transform="translate(-.24 -.12)" d="m39 55.66 3.09 5v-5h1.53v7.42h-1.62l-3.09-5v5h-1.51v-7.42z"/>
<path class="cls-1" transform="translate(-.24 -.12)" d="M49.05,55.66l2.78,7.42h-1.7l-.56-1.65H46.8l-.58,1.65H44.58l2.8-7.42Zm.1,4.55-.94-2.72h0l-1,2.72Z"/>
<path class="cls-1" transform="translate(-.24 -.12)" d="M54.36,55.66v6.05H58v1.37H52.73V55.66Z"/>
<path class="cls-1" transform="translate(-.24 -.12)" d="M64.7,55.66V57H60.78v1.59h3.6v1.27h-3.6v1.82h4v1.37H59.15V55.66Z"/>
<path class="cls-1" transform="translate(-.24 -.12)" d="M6.75,66a3.17,3.17,0,0,1,1.18.19,2.5,2.5,0,0,1,.8.54,2,2,0,0,1,.44.76,2.66,2.66,0,0,1,.14.88,2.62,2.62,0,0,1-.14.88,2.12,2.12,0,0,1-.44.77,2.33,2.33,0,0,1-.8.53,3,3,0,0,1-1.18.2H5v2.66H3.4V66ZM6.3,69.47a4.56,4.56,0,0,0,.54,0,1.33,1.33,0,0,0,.46-.17.85.85,0,0,0,.32-.33,1.36,1.36,0,0,0,.11-.58,1.27,1.27,0,0,0-.11-.56.88.88,0,0,0-.32-.34,1.14,1.14,0,0,0-.46-.16,3.1,3.1,0,0,0-.54-.05H5v2.23Z"/>
<path class="cls-1" transform="translate(-.24 -.12)" d="M16.14,66v1.37H12.22v1.58h3.6V70.2h-3.6V72h4v1.37H10.59V66Z"/>
<path class="cls-1" transform="translate(-.24 -.12)" d="M21.58,66a2.33,2.33,0,0,1,.9.16,1.9,1.9,0,0,1,.69.44,2.07,2.07,0,0,1,.44.65,2.26,2.26,0,0,1,.14.79,2.22,2.22,0,0,1-.27,1.13,1.71,1.71,0,0,1-.9.73v0a1.3,1.3,0,0,1,.82.66,1.82,1.82,0,0,1,.18.51,3.72,3.72,0,0,1,.08.57c0,.12,0,.25,0,.41s0,.33,0,.49a3.06,3.06,0,0,0,.08.47,1.12,1.12,0,0,0,.17.38H22.34a3.11,3.11,0,0,1-.17-.84c0-.32-.05-.64-.09-.93a1.49,1.49,0,0,0-.35-.86,1.23,1.23,0,0,0-.89-.26H19.21v2.89H17.58V66ZM21,69.33a1.19,1.19,0,0,0,.84-.25,1,1,0,0,0,.28-.81,1,1,0,0,0-.28-.79,1.29,1.29,0,0,0-.84-.24H19.21v2.09Z"/>
<path class="cls-1" transform="translate(-.24 -.12)" d="M30.12,66v7.41H28.49V66Z"/>
<path class="cls-1" transform="translate(-.24 -.12)" d="M39.36,73.34a2.73,2.73,0,0,1-1.07.22,3.9,3.9,0,0,1-1.53-.29,3.34,3.34,0,0,1-1.15-.82,3.82,3.82,0,0,1-.72-1.22,4.39,4.39,0,0,1-.25-1.51,4.58,4.58,0,0,1,.25-1.55,3.92,3.92,0,0,1,.72-1.24,3.24,3.24,0,0,1,1.15-.83,3.73,3.73,0,0,1,1.53-.3A3.78,3.78,0,0,1,39.4,66a3.05,3.05,0,0,1,1,.51,2.63,2.63,0,0,1,.71.81,2.78,2.78,0,0,1,.35,1.13H39.86a1.57,1.57,0,0,0-.56-.94,1.64,1.64,0,0,0-1-.31,1.84,1.84,0,0,0-.94.22,1.78,1.78,0,0,0-.62.57,2.48,2.48,0,0,0-.35.81,4.19,4.19,0,0,0-.11,1,3.82,3.82,0,0,0,.11.9,2.63,2.63,0,0,0,.35.8,1.8,1.8,0,0,0,1.56.78,1.78,1.78,0,0,0,1.25-.41,1.81,1.81,0,0,0,.52-1.19H38.41V69.38h3.12v4h-1l-.16-.84A2.51,2.51,0,0,1,39.36,73.34Z"/>
<path class="cls-1" transform="translate(-.24 -.12)" d="M44.74,66v7.41H43.11V66Z"/>
<path class="cls-1" transform="translate(-.24 -.12)" d="M46.36,68.17a3.92,3.92,0,0,1,.72-1.24,3.24,3.24,0,0,1,1.15-.83,3.73,3.73,0,0,1,1.53-.3,3.78,3.78,0,0,1,1.54.3,3.29,3.29,0,0,1,1.14.83,3.92,3.92,0,0,1,.72,1.24,4.84,4.84,0,0,1,.25,1.55,4.64,4.64,0,0,1-.25,1.51,3.82,3.82,0,0,1-.72,1.22,3.4,3.4,0,0,1-1.14.82,4,4,0,0,1-1.54.29,3.9,3.9,0,0,1-1.53-.29,3.34,3.34,0,0,1-1.15-.82,3.82,3.82,0,0,1-.72-1.22,4.64,4.64,0,0,1-.25-1.51A4.84,4.84,0,0,1,46.36,68.17Zm1.49,2.45a2.63,2.63,0,0,0,.35.8,1.92,1.92,0,0,0,3.12,0,2.63,2.63,0,0,0,.35-.8,3.82,3.82,0,0,0,.11-.9,4.19,4.19,0,0,0-.11-1,2.48,2.48,0,0,0-.35-.81,1.73,1.73,0,0,0-.63-.57,2.08,2.08,0,0,0-1.86,0,1.73,1.73,0,0,0-.63.57,2.48,2.48,0,0,0-.35.81,4.19,4.19,0,0,0-.1,1A3.82,3.82,0,0,0,47.85,70.62Z"/>
<path class="cls-1" transform="translate(-.24 -.12)" d="M56.39,73.39,54,66h1.67l1.65,5.21h0L59,66h1.68l-2.46,7.41Z"/>
<path class="cls-1" transform="translate(-.24 -.12)" d="M64.8,66l2.78,7.41H65.89l-.57-1.65H62.55L62,73.39H60.32L63.13,66Zm.1,4.54L64,67.81h0l-1,2.71Z"/>
<path class="cls-1" transform="translate(-.24 -.12)" d="m70.1 66 3.1 5v-5h1.53v7.41h-1.62l-3.08-5v5h-1.55v-7.41z"/>
<path class="cls-1" transform="translate(-.24 -.12)" d="M78.07,66v7.41H76.44V66Z"/>
</svg>

<svg xmlns="http://www.w3.org/2000/svg" id="Livello_1" data-name="Livello 1" viewBox="0 0 130.36 75.82"><script xmlns="">window._wordtune_extension_installed = true;</script><defs><style>.cls-1{fill:#fff;}</style></defs><path class="cls-1" d="M120.09,42.78H90.42c3.25-3,7.74-3.75,12.77-4.21a17,17,0,0,0,2.14.14,17.67,17.67,0,0,0,17.1-13.82,14.42,14.42,0,0,0,.46-3.48l0-7.45c0-5.43,3.74-6,5.35-6a2.39,2.39,0,0,0,0-4.77,9.56,9.56,0,0,0-9.32,6.36,17.43,17.43,0,0,0-13.61-6.6,17.94,17.94,0,0,0-10,32.59c-4.45,1.72-8.22,3.29-10.86,6.82-.8-.55-1.53-.52-1.53-3.2V18.27C83,7.92,75.59.12,65.78.12A16.78,16.78,0,0,0,53.12,6,8.57,8.57,0,0,0,44.87.58,2.36,2.36,0,0,0,42.53,3a2.37,2.37,0,0,0,2.34,2.39c1.6,0,4.3.63,4.3,4.86v21.5c0,4.3-2.28,4.65-4.38,4.65-1.59,0-4.69-.63-4.69-4.86V10.77a2.37,2.37,0,0,0-2.34-2.39,2.33,2.33,0,0,0-1.47.54A19.81,19.81,0,0,0,20.17.52,20.15,20.15,0,0,0,.24,20.83c0,13.85,11.84,20.3,19.86,20.3a23.36,23.36,0,0,0,15.87-6,9.24,9.24,0,0,0,17.89-3.44V16.45c0-6.16,5.57-11.56,11.92-11.56S78.3,9.48,78.3,18.27V39.15c0,4.48,1.64,5.91,3.82,7.26a19.25,19.25,0,0,0-1.66,7.8c0,12,11.16,21.73,24.87,21.73s24.88-9.74,24.88-21.73C130.21,48.8,126,42.78,120.09,42.78Zm-27.63-22a12.87,12.87,0,1,1,25.74,0,12.59,12.59,0,0,1-.31,2.83,12.9,12.9,0,0,1-12.56,10.05c-.66,0-1.33,0-2,.08A13.07,13.07,0,0,1,92.46,20.83ZM20.1,36.36c-4.76,0-15.18-3.91-15.18-15.53A15.42,15.42,0,0,1,20.17,5.3,15.41,15.41,0,0,1,35.42,20.83s0,.06,0,.1v8.13C31,34,26,36.36,20.1,36.36Zm85.23,34.81c-11.13,0-20.2-7.61-20.2-17a14.69,14.69,0,0,1,1.63-6.66h33.33c3,0,5.43,3.64,5.43,6.66C125.52,63.56,116.47,71.17,105.33,71.17Z" transform="translate(-0.24 -0.12)"/><path class="cls-1" d="M7.1,45.35l2.78,7.41H8.18l-.56-1.65H4.85l-.59,1.65H2.62l2.81-7.41Zm.09,4.55-.93-2.73h0l-1,2.73Z" transform="translate(-0.24 -0.12)"/><path class="cls-1" d="M15.17,52.71a2.7,2.7,0,0,1-1.07.22,3.73,3.73,0,0,1-1.53-.3,3.19,3.19,0,0,1-1.15-.81,3.53,3.53,0,0,1-.71-1.22,4.43,4.43,0,0,1-.25-1.51,4.58,4.58,0,0,1,.25-1.55,3.62,3.62,0,0,1,.71-1.24,3.24,3.24,0,0,1,1.15-.83,3.73,3.73,0,0,1,1.53-.3,3.78,3.78,0,0,1,1.11.17,3.13,3.13,0,0,1,1,.5,2.84,2.84,0,0,1,.72.82,2.72,2.72,0,0,1,.34,1.13H15.67a1.57,1.57,0,0,0-.56-.94,1.62,1.62,0,0,0-1-.31,1.88,1.88,0,0,0-.93.21,1.76,1.76,0,0,0-.63.58,2.28,2.28,0,0,0-.34.81,3.69,3.69,0,0,0-.11,1,3.36,3.36,0,0,0,.11.9,2.39,2.39,0,0,0,.34.8,1.7,1.7,0,0,0,.63.56,1.78,1.78,0,0,0,.93.22,1.82,1.82,0,0,0,1.26-.41A1.82,1.82,0,0,0,15.87,50H14.23V48.75h3.11v4h-1l-.16-.84A2.38,2.38,0,0,1,15.17,52.71Z" transform="translate(-0.24 -0.12)"/><path class="cls-1" d="M24.47,45.35v1.37H20.55V48.3h3.6v1.27h-3.6v1.82h4v1.37H18.92V45.35Z" transform="translate(-0.24 -0.12)"/><path class="cls-1" d="M27.54,45.35l3.09,5h0v-5h1.53v7.41H30.55l-3.09-5h0v5H25.92V45.35Z" transform="translate(-0.24 -0.12)"/><path class="cls-1" d="M37.38,46.72H33.71V45.35h5.84v1.28l-4,4.76h4.08v1.37H33.4V51.47Z" transform="translate(-0.24 -0.12)"/><path class="cls-1" d="M42.5,45.35v7.41H40.87V45.35Z" transform="translate(-0.24 -0.12)"/><path class="cls-1" d="M47.89,45.35l2.77,7.41H49l-.56-1.65H45.63l-.58,1.65H43.41l2.81-7.41ZM48,49.9l-.93-2.73h0l-1,2.73Z" transform="translate(-0.24 -0.12)"/><path class="cls-1" d="M5,55.66l3.1,5h0v-5H9.67v7.42H8L5,58.11h0v5H3.4V55.66Z" transform="translate(-0.24 -0.12)"/><path class="cls-1" d="M15.06,55.66l2.77,7.42H16.14l-.56-1.65H12.81l-.59,1.65H10.58l2.81-7.42Zm.09,4.55-.93-2.72h0l-1,2.72Z" transform="translate(-0.24 -0.12)"/><path class="cls-1" d="M22.24,57H18.57V55.66h5.84V57l-4,4.76h4.08v1.37H18.26V61.79Z" transform="translate(-0.24 -0.12)"/><path class="cls-1" d="M27.36,55.66v7.42H25.73V55.66Z" transform="translate(-0.24 -0.12)"/><path class="cls-1" d="M29,57.86a3.86,3.86,0,0,1,.72-1.25,3.22,3.22,0,0,1,1.15-.82,3.58,3.58,0,0,1,1.53-.31,3.62,3.62,0,0,1,1.54.31,3.27,3.27,0,0,1,1.14.82,3.86,3.86,0,0,1,.72,1.25A4.78,4.78,0,0,1,36,59.4a4.64,4.64,0,0,1-.24,1.51,3.62,3.62,0,0,1-.72,1.22,3.27,3.27,0,0,1-1.14.82,4,4,0,0,1-1.54.29A3.9,3.9,0,0,1,30.85,63a3.22,3.22,0,0,1-1.15-.82A3.62,3.62,0,0,1,29,60.91a4.64,4.64,0,0,1-.25-1.51A4.78,4.78,0,0,1,29,57.86Zm1.49,2.45a2.5,2.5,0,0,0,.35.8,1.85,1.85,0,0,0,.62.56,2,2,0,0,0,.94.21,1.91,1.91,0,0,0,.93-.21,1.8,1.8,0,0,0,.63-.56,2.74,2.74,0,0,0,.35-.8,3.91,3.91,0,0,0,.1-.91,4.25,4.25,0,0,0-.1-.95,2.69,2.69,0,0,0-.35-.81,1.73,1.73,0,0,0-.63-.57,1.91,1.91,0,0,0-.93-.22,2,2,0,0,0-.94.22,1.78,1.78,0,0,0-.62.57,2.46,2.46,0,0,0-.35.81,4.26,4.26,0,0,0-.11.95A3.91,3.91,0,0,0,30.47,60.31Z" transform="translate(-0.24 -0.12)"/><path class="cls-1" d="M39,55.66l3.09,5h0v-5h1.53v7.42H42l-3.09-5h0v5H37.4V55.66Z" transform="translate(-0.24 -0.12)"/><path class="cls-1" d="M49.05,55.66l2.78,7.42h-1.7l-.56-1.65H46.8l-.58,1.65H44.58l2.8-7.42Zm.1,4.55-.94-2.72h0l-1,2.72Z" transform="translate(-0.24 -0.12)"/><path class="cls-1" d="M54.36,55.66v6.05H58v1.37H52.73V55.66Z" transform="translate(-0.24 -0.12)"/><path class="cls-1" d="M64.7,55.66V57H60.78v1.59h3.6v1.27h-3.6v1.82h4v1.37H59.15V55.66Z" transform="translate(-0.24 -0.12)"/><path class="cls-1" d="M6.75,66a3.17,3.17,0,0,1,1.18.19,2.5,2.5,0,0,1,.8.54,2,2,0,0,1,.44.76,2.66,2.66,0,0,1,.14.88,2.62,2.62,0,0,1-.14.88,2.12,2.12,0,0,1-.44.77,2.33,2.33,0,0,1-.8.53,3,3,0,0,1-1.18.2H5v2.66H3.4V66ZM6.3,69.47a4.56,4.56,0,0,0,.54,0,1.33,1.33,0,0,0,.46-.17.85.85,0,0,0,.32-.33,1.36,1.36,0,0,0,.11-.58,1.27,1.27,0,0,0-.11-.56.88.88,0,0,0-.32-.34,1.14,1.14,0,0,0-.46-.16,3.1,3.1,0,0,0-.54-.05H5v2.23Z" transform="translate(-0.24 -0.12)"/><path class="cls-1" d="M16.14,66v1.37H12.22v1.58h3.6V70.2h-3.6V72h4v1.37H10.59V66Z" transform="translate(-0.24 -0.12)"/><path class="cls-1" d="M21.58,66a2.33,2.33,0,0,1,.9.16,1.9,1.9,0,0,1,.69.44,2.07,2.07,0,0,1,.44.65,2.26,2.26,0,0,1,.14.79,2.22,2.22,0,0,1-.27,1.13,1.71,1.71,0,0,1-.9.73v0a1.3,1.3,0,0,1,.82.66,1.82,1.82,0,0,1,.18.51,3.72,3.72,0,0,1,.08.57c0,.12,0,.25,0,.41s0,.33,0,.49a3.06,3.06,0,0,0,.08.47,1.12,1.12,0,0,0,.17.38H22.34a3.11,3.11,0,0,1-.17-.84c0-.32-.05-.64-.09-.93a1.49,1.49,0,0,0-.35-.86,1.23,1.23,0,0,0-.89-.26H19.21v2.89H17.58V66ZM21,69.33a1.19,1.19,0,0,0,.84-.25,1,1,0,0,0,.28-.81,1,1,0,0,0-.28-.79,1.29,1.29,0,0,0-.84-.24H19.21v2.09Z" transform="translate(-0.24 -0.12)"/><path class="cls-1" d="M30.12,66v7.41H28.49V66Z" transform="translate(-0.24 -0.12)"/><path class="cls-1" d="M39.36,73.34a2.73,2.73,0,0,1-1.07.22,3.9,3.9,0,0,1-1.53-.29,3.34,3.34,0,0,1-1.15-.82,3.82,3.82,0,0,1-.72-1.22,4.39,4.39,0,0,1-.25-1.51,4.58,4.58,0,0,1,.25-1.55,3.92,3.92,0,0,1,.72-1.24,3.24,3.24,0,0,1,1.15-.83,3.73,3.73,0,0,1,1.53-.3A3.78,3.78,0,0,1,39.4,66a3.05,3.05,0,0,1,1,.51,2.63,2.63,0,0,1,.71.81,2.78,2.78,0,0,1,.35,1.13H39.86a1.57,1.57,0,0,0-.56-.94,1.64,1.64,0,0,0-1-.31,1.84,1.84,0,0,0-.94.22,1.78,1.78,0,0,0-.62.57,2.48,2.48,0,0,0-.35.81,4.19,4.19,0,0,0-.11,1,3.82,3.82,0,0,0,.11.9,2.63,2.63,0,0,0,.35.8,1.8,1.8,0,0,0,1.56.78,1.78,1.78,0,0,0,1.25-.41,1.81,1.81,0,0,0,.52-1.19H38.41V69.38h3.12v4h-1l-.16-.84A2.51,2.51,0,0,1,39.36,73.34Z" transform="translate(-0.24 -0.12)"/><path class="cls-1" d="M44.74,66v7.41H43.11V66Z" transform="translate(-0.24 -0.12)"/><path class="cls-1" d="M46.36,68.17a3.92,3.92,0,0,1,.72-1.24,3.24,3.24,0,0,1,1.15-.83,3.73,3.73,0,0,1,1.53-.3,3.78,3.78,0,0,1,1.54.3,3.29,3.29,0,0,1,1.14.83,3.92,3.92,0,0,1,.72,1.24,4.84,4.84,0,0,1,.25,1.55,4.64,4.64,0,0,1-.25,1.51,3.82,3.82,0,0,1-.72,1.22,3.4,3.4,0,0,1-1.14.82,4,4,0,0,1-1.54.29,3.9,3.9,0,0,1-1.53-.29,3.34,3.34,0,0,1-1.15-.82,3.82,3.82,0,0,1-.72-1.22,4.64,4.64,0,0,1-.25-1.51A4.84,4.84,0,0,1,46.36,68.17Zm1.49,2.45a2.63,2.63,0,0,0,.35.8,1.92,1.92,0,0,0,3.12,0,2.63,2.63,0,0,0,.35-.8,3.82,3.82,0,0,0,.11-.9,4.19,4.19,0,0,0-.11-1,2.48,2.48,0,0,0-.35-.81,1.73,1.73,0,0,0-.63-.57,2.08,2.08,0,0,0-1.86,0,1.73,1.73,0,0,0-.63.57,2.48,2.48,0,0,0-.35.81,4.19,4.19,0,0,0-.1,1A3.82,3.82,0,0,0,47.85,70.62Z" transform="translate(-0.24 -0.12)"/><path class="cls-1" d="M56.39,73.39,54,66h1.67l1.65,5.21h0L59,66h1.68l-2.46,7.41Z" transform="translate(-0.24 -0.12)"/><path class="cls-1" d="M64.8,66l2.78,7.41H65.89l-.57-1.65H62.55L62,73.39H60.32L63.13,66Zm.1,4.54L64,67.81h0l-1,2.71Z" transform="translate(-0.24 -0.12)"/><path class="cls-1" d="M70.1,66l3.1,5h0V66h1.53v7.41H73.11l-3.08-5h0v5H68.48V66Z" transform="translate(-0.24 -0.12)"/><path class="cls-1" d="M78.07,66v7.41H76.44V66Z" transform="translate(-0.24 -0.12)"/></svg>
